assets/svg/icon_login_createacc.svg

<svg width="24" height="24" viewBox="0 0 24 24" fill="none" xmlns="http://www.w3.org/2000/svg">
<path fill-rule="evenodd" clip-rule="evenodd" d="M10.0934 3.2793C7.96645 3.2793 6.24219 5.00355 6.24219 7.13053C6.24219 9.2575 7.96645 10.9818 10.0934 10.9818C12.2204 10.9818 13.9446 9.2575 13.9446 7.13053C13.9446 5.00355 12.2204 3.2793 10.0934 3.2793ZM7.45837 7.13053C7.45837 5.67523 8.63812 4.49548 10.0934 4.49548C11.5488 4.49548 12.7285 5.67523 12.7285 7.13053C12.7285 8.58583 11.5488 9.76558 10.0934 9.76558C8.63812 9.76558 7.45837 8.58583 7.45837 7.13053Z" fill="#0166FF"/>
<path fill-rule="evenodd" clip-rule="evenodd" d="M10.0945 12.2031C8.21869 12.2031 6.49048 12.6295 5.20986 13.3498C3.94831 14.0595 3.0001 15.135 3.0001 16.4598L3.00006 16.5425C2.99914 17.4844 2.99799 18.6667 4.03501 19.5111C4.54537 19.9268 5.25934 20.2223 6.22396 20.4176C7.19128 20.6133 8.45202 20.7164 10.0945 20.7164C11.7369 20.7164 12.9977 20.6133 13.965 20.4176C14.9297 20.2223 15.6436 19.9268 16.1539 19.5111C17.1909 18.6667 17.1898 17.4844 17.1889 16.5425L17.1888 16.4598C17.1888 15.135 16.2407 14.0595 14.9791 13.3498C13.6985 12.6295 11.9703 12.2031 10.0945 12.2031ZM4.21628 16.4598C4.21628 15.7695 4.72009 15.0207 5.80611 14.4098C6.87307 13.8097 8.388 13.4193 10.0945 13.4193C11.801 13.4193 13.3159 13.8097 14.3829 14.4098C15.4689 15.0207 15.9727 15.7695 15.9727 16.4598C15.9727 17.5201 15.94 18.117 15.386 18.5681C15.0856 18.8128 14.5834 19.0516 13.7237 19.2256C12.8668 19.399 11.6952 19.5002 10.0945 19.5002C8.4938 19.5002 7.32219 19.399 6.46524 19.2256C5.60559 19.0516 5.10338 18.8128 4.80296 18.5681C4.24897 18.117 4.21628 17.5201 4.21628 16.4598Z" fill="#0166FF"/>
<path d="M18.5 7.2793V12.2793M21 9.7793H16" stroke="#0166FF" stroke-width="1.3" stroke-linecap="round" stroke-linejoin="round"/>
</svg>

<svg xmlns="http://www.w3.org/2000/svg" width="24" height="24" fill="none"><path fill="#0166FF" fill-rule="evenodd" d="M10.093 3.28a3.851 3.851 0 1 0 0 7.702 3.851 3.851 0 0 0 0-7.703M7.458 7.13a2.635 2.635 0 1 1 5.27 0 2.635 2.635 0 0 1-5.27 0M10.095 12.203c-1.876 0-3.605.427-4.885 1.147C3.948 14.06 3 15.135 3 16.46v.082c0 .942-.002 2.125 1.035 2.97.51.415 1.224.71 2.189.906.967.195 2.228.298 3.87.298 1.643 0 2.904-.103 3.871-.298.965-.196 1.679-.491 2.189-.907 1.037-.844 1.036-2.027 1.035-2.968v-.083c0-1.325-.948-2.4-2.21-3.11-1.28-.72-3.009-1.147-4.884-1.147M4.216 16.46c0-.69.504-1.44 1.59-2.05 1.067-.6 2.582-.99 4.289-.99s3.22.39 4.288.99c1.086.61 1.59 1.36 1.59 2.05 0 1.06-.033 1.657-.587 2.108-.3.245-.803.484-1.662.658-.857.173-2.029.274-3.63.274s-2.772-.101-3.629-.274c-.86-.174-1.362-.413-1.662-.658-.554-.451-.587-1.048-.587-2.108" clip-rule="evenodd"/><path stroke="#0166FF" stroke-linecap="round" stroke-linejoin="round" stroke-width="1.3" d="M18.5 7.28v5m2.5-2.5h-5"/></svg>
